X:232
T:Andro P.O.
R:Andro
C:trad
N:original url: www.wolfram.claranet.de
Z:Wolfram Dietz
M:4/4
L:1/8
K:Am
A2 c2 BA GA|B2 B2 c2 A2|A2 c2 BA GA|B2 cB A4:|
A2 e2 dc Bc|d2 d2 c2 B2|A2 c2 BA GA|1 B2 B2 c2 B2:|2 B2 cB A4|]
